!!!OTL: 2058. Marias Wanderung.
!!!ODT: 1885
!!!ARE: Europa, Mitteleuropa, Deutschland, Hessen, Hanau; Fulda
!!!SCT: E2058A
!!!TXL: @@DE
!!!YEM: Copyright 1995, estate of Helmut Schaffrath.
**kern	**text
*ICvox	*
*M4/4	*
*met(c)	*
*k[b-]	*
*F:	*
!LO:TX:a:t=Langſam.	!
!LO:TX:a:t=Aus der Gegend von Hanau und Fulda (um 1885).	!
{4c	Ma-
=1	=1
4f	-ri-
4a	-a
4g	woll-
8ccL	-te
8b-J	.
=2	=2
(4.a	wandern
8g)	.
4f}	gehn,
{8/aL	wollt
8ccJ	.
=3	=3
4b-	al-
4b-	-le
4a	Län-
8ccL	-der
8b-J	aus-
=4	=4
2g	-gehn,
4r}	.
{8ccL	wollt
8b-J	.
=5	=5
4a	ſu-
4a	-chen
8gL	ih-
8fJ	.
4g	-ren
=6	=6
(4a	Sohn,
4dd	.
4cc)}	.
{4b-	wollt
=7	=7
4a	ſu-
4a	-chen
8gL	ih-
8fJ	.
4g	-ren
=8	=8
2.f;}	Sohn.
==	==
!!!AGN: geistlich, Marien - Lied, Legende
!!!ONB: ESAC (Essen Associative Code) Database: ERK3
!!!AMT: simple quadruple
!!!AIN: vox
!!!EED: Helmut Schaffrath
!!!EEV: 1.0
!!!GTL: 4. Katholische Lieder: b) Marienlieder (Rufe und Legenden.)
!!!URL-scan: https://rosdok.uni-rostock.de/mcrviewer/recordIdentifier/rosdok_ppn745177999/iview2/phys_0760.iview2?x=113.01762814781455&y=449.43947215005755&scale=0.7014306698522891&rotation=0&layout=singlePageLayout
!!!ENC: Anna Maria Matuszewska
!!!EEV: 2025/13/01
*-	*-
